X:1
T:Title
%%score { 1 | ( 2 3 ) }
L:1/8
M:6/8
K:Ab
V:1 treble nm="Grand Piano"
V:2 bass 
V:3 bass 
V:1
 z3 z2[Q:1/4=90] [CE] | [Ec]2 [Ec] B2 c | A2 F [CE]2 [CE] | [Ec]2 [CA] G2 A |[M:5/8] B-B- B3 | %5
[M:1/8] B |[M:3/4] c2 d e2 c | [FB]2 [Fc] [Fd]2 [FB] | A2 G F2 G |[M:5/8] [CA]-[CA]- [CA]3 | %10
[M:1/8] e |[M:3/4] e2 AA Bc | [Ac]2 [GB] [GB]2 [Bd] | [Bd]2 [GB][GB] [Ac][Bd] |[M:5/8] c-c- c3 | %15
[M:1/8] c |[M:3/4] c2 d e2 c | [FB]2 [Fc] [Fd]2 [FB] | A2 G F2 G |[M:5/8] [CA]-[CA]- [CA]3 |] %20
V:2
 z3 z2 [A,,A,] | [A,,A,]2 [A,,A,] [E,G,D]2 [E,G,E] | [F,A,C]2 [D,A,D] [A,,A,]2 [A,,A,] | %3
 [A,,A,]2 [A,,A,] [E,B,D]2 [E,A,C] |[M:5/8] [E,G,E]-[E,G,E]- [E,G,E]3 |[M:1/8] [E,G,E] | %6
[M:3/4][K:treble] [A,E]2 [A,B,E] [A,CA]2 [A,EA] | [D,D]2 [C,=A,] [B,,B,]2 [D,B,] | %8
 [E,CE]2 [E,B,D] [E,A,D]2 [E,B,D] |[M:5/8] [A,,A,]-[A,,A,]- [A,,A,]3 |[M:1/8][K:treble] [A,CA] | %11
[M:3/4] [A,CA]2 [A,CE][A,E]- [A,DE][A,EA] | [E,E]2 [E,E] [E,E]2 [E,E] | [E,E]2 [E,E] [E,E]2 [E,E] | %14
[M:5/8][K:treble] [A,EA]-[A,EA]- [A,EA]3 |[M:1/8] [A,E] |[M:3/4] [A,E]2 [A,B,E] [A,CA]2 [A,EA] | %17
 [D,D]2 [C,=A,] [B,,B,]2 [D,B,] | [E,CE]2 [E,B,D] [E,A,D]2 [E,B,D] | %19
[M:5/8] [A,,A,]-[A,,A,]- [A,,A,]3 |] %20
V:3
 x6 | x6 | x6 | x6 |[M:5/8] x5 |[M:1/8] x |[M:3/4][K:treble] x6 | x6 | x6 |[M:5/8] x5 | %10
[M:1/8][K:treble] x |[M:3/4] z2 z C z2 | x6 | x6 |[M:5/8][K:treble] x5 |[M:1/8] x |[M:3/4] x6 | %17
 x6 | x6 |[M:5/8] x5 |] %20

